assets/images/icons/helicopter.svg

<svg width="32" height="32" viewBox="0 0 32 32" fill="none" xmlns="http://www.w3.org/2000/svg">
<path opacity="0.1" d="M0.223155 23.1618C-0.0589054 20.752 -0.098086 18.3874 0.248062 16.248C0.673696 13.6174 1.78493 10.6909 2.99894 8.07362C5.37163 2.95839 9.61911 1.16885 14.7912 0.362065C22.0007 -0.762522 31.9372 0.362091 32 9.08714C31.6383 12.2073 29.2517 20.8815 21.1951 21.5434C18.5313 21.7622 17.5348 24.4378 16.3612 27.5006C13.2729 35.5602 1.25575 31.9835 0.223155 23.1618Z" fill="#7FB51F"/>
<path d="M5.99996 16.4999C7.10452 16.4999 7.99993 15.6045 7.99993 14.5C7.99993 13.3954 7.10452 12.5 5.99996 12.5C4.89541 12.5 4 13.3954 4 14.5C4 15.6045 4.89541 16.4999 5.99996 16.4999Z" fill="#7FB51F"/>
<path d="M20 13.5C19.724 13.5 19.5 13.724 19.5 14C19.5 14.276 19.724 14.5 20 14.5C24.1019 14.5 26.9998 18.2519 26.9998 18.9999C26.9998 19.2759 27.2238 19.4999 27.4998 19.4999C27.7758 19.4999 27.9998 19.2759 27.9998 18.9999C27.9998 17.4499 24.4519 13.5 20 13.5Z" fill="#7FB51F"/>
<path d="M27.4995 18.5001H22.9876C22.3196 18.5001 21.7426 18.0701 21.5496 17.4311L20.4457 13.7762L19.4457 11.7762C19.3617 11.6073 19.1887 11.5002 18.9997 11.5002H17.4997C17.3668 11.5002 17.2397 11.5533 17.1457 11.6463L15.2928 13.5002H7.5C7.22401 13.5002 7 13.7242 7 14.0002V15.0002C7 15.2441 7.177 15.4532 7.41797 15.4931C9.24994 15.7991 12.3688 16.5501 13.0848 17.2871L13.1168 17.3491C14.0618 19.1991 15.2388 21.5 17.4997 21.5H24.4995C26.4945 21.5 27.9995 20.4251 27.9995 19.0001C27.9995 18.724 27.7755 18.5001 27.4995 18.5001Z" fill="#7FB51F"/>
<path d="M6.96352 12.8371L5.96352 10.8372C5.84554 10.6011 5.56153 10.4982 5.31755 10.6041L4.30259 11.0412C4.06461 11.1441 3.94358 11.4122 4.02561 11.6582L4.52562 13.1581C4.61463 13.4201 4.89859 13.5611 5.1586 13.4741C5.36161 13.4071 5.48859 13.2221 5.49661 13.0201L5.94458 13.0381L6.06856 13.2851C6.15654 13.4601 6.33354 13.5611 6.51555 13.5611C6.59055 13.5611 6.66653 13.5441 6.73956 13.5081C6.98649 13.3841 7.08647 13.0841 6.96352 12.8371Z" fill="#7FB51F"/>
<path d="M6.72397 15.553C6.47798 15.432 6.177 15.53 6.05297 15.777L5.98997 15.901C5.94399 15.672 5.74197 15.5 5.5 15.5C5.22401 15.5 5 15.724 5 16V17C5 17.276 5.22401 17.5 5.5 17.5H6.00001C6.189 17.5 6.36201 17.393 6.44699 17.224L6.947 16.224C7.06995 15.977 6.97095 15.676 6.72397 15.553Z" fill="#7FB51F"/>
<path d="M18.5 8.50024C18.224 8.50024 18 8.72425 18 9.00025V9.50025C18 9.77624 18.224 10.0003 18.5 10.0003C18.776 10.0003 19 9.77624 19 9.50025V9.00025C19 8.72425 18.776 8.50024 18.5 8.50024Z" fill="#7FB51F"/>
<path d="M27.4998 9.50024H18.5C18.224 9.50024 18 9.72425 18 10.0002C18 10.2762 18.224 10.5002 18.5 10.5002H27.4998C27.7758 10.5002 27.9998 10.2762 27.9998 10.0002C27.9998 9.72425 27.7758 9.50024 27.4998 9.50024Z" fill="#7FB51F"/>
<path d="M18.4998 9.50024H9.5C9.22401 9.50024 9 9.72425 9 10.0002C9 10.2762 9.22401 10.5002 9.5 10.5002H18.4998C18.7758 10.5002 18.9998 10.2762 18.9998 10.0002C18.9998 9.72425 18.7758 9.50024 18.4998 9.50024Z" fill="#7FB51F"/>
<path d="M20.5 20.4998C20.224 20.4998 20 20.7238 20 20.9998V22.9997C20 23.2757 20.224 23.4997 20.5 23.4997C20.776 23.4997 21 23.2757 21 22.9997V20.9998C21 20.7238 20.776 20.4998 20.5 20.4998Z" fill="#7FB51F"/>
<path d="M24.5 20.4998C24.224 20.4998 24 20.7238 24 20.9998V22.9997C24 23.2757 24.224 23.4997 24.5 23.4997C24.776 23.4997 25 23.2757 25 22.9997V20.9998C25 20.7238 24.776 20.4998 24.5 20.4998Z" fill="#7FB51F"/>
<path d="M27.7437 21.5639C27.5027 21.4289 27.1977 21.5149 27.0627 21.7559C26.8257 22.1789 25.8598 22.4428 25.4998 22.4998H15.5C15.224 22.4998 15 22.7239 15 22.9998C15 23.2758 15.224 23.4998 15.5 23.4998L25.5687 23.4948C25.7537 23.4688 27.3927 23.2138 27.9357 22.2439C28.0707 22.0028 27.9847 21.6989 27.7437 21.5639Z" fill="#7FB51F"/>
</svg>

<svg xmlns="http://www.w3.org/2000/svg" width="32" height="32" fill="none"><path fill="#7FB51F" d="M.223 23.162c-.282-2.41-.321-4.775.025-6.914.426-2.63 1.537-5.557 2.75-8.174C5.373 2.958 9.62 1.169 14.792.362 22.001-.763 31.937.362 32 9.087c-.362 3.12-2.748 11.795-10.805 12.456-2.664.22-3.66 2.895-4.834 5.958-3.088 8.06-15.105 4.482-16.138-4.34" opacity=".1"/><path fill="#7FB51F" d="M6 16.5a2 2 0 1 0 0-4 2 2 0 0 0 0 4m14-3a.5.5 0 0 0 0 1c4.102 0 7 3.752 7 4.5a.5.5 0 0 0 1 0c0-1.55-3.548-5.5-8-5.5"/><path fill="#7FB51F" d="M27.5 18.5h-4.512c-.668 0-1.245-.43-1.438-1.069l-1.104-3.655-1-2A.5.5 0 0 0 19 11.5h-1.5a.5.5 0 0 0-.354.146L15.293 13.5H7.5a.5.5 0 0 0-.5.5v1a.5.5 0 0 0 .418.493c1.832.306 4.95 1.057 5.667 1.794l.032.062c.945 1.85 2.122 4.151 4.383 4.151h7c1.994 0 3.5-1.075 3.5-2.5a.5.5 0 0 0-.5-.5M6.964 12.837l-1-2a.5.5 0 0 0-.646-.233l-1.015.437a.5.5 0 0 0-.277.617l.5 1.5a.5.5 0 0 0 .633.316.495.495 0 0 0 .338-.454l.448.018.124.247a.501.501 0 0 0 .895-.448m-.24 2.716a.503.503 0 0 0-.671.224l-.063.124A.5.5 0 0 0 5 16v1a.5.5 0 0 0 .5.5H6a.5.5 0 0 0 .447-.276l.5-1a.5.5 0 0 0-.223-.671M18.5 8.5a.5.5 0 0 0-.5.5v.5a.5.5 0 0 0 1 0V9a.5.5 0 0 0-.5-.5"/><path fill="#7FB51F" d="M27.5 9.5h-9a.5.5 0 0 0 0 1h9a.5.5 0 0 0 0-1"/><path fill="#7FB51F" d="M18.5 9.5h-9a.5.5 0 0 0 0 1h9a.5.5 0 0 0 0-1m2 11a.5.5 0 0 0-.5.5v2a.5.5 0 0 0 1 0v-2a.5.5 0 0 0-.5-.5m4 0a.5.5 0 0 0-.5.5v2a.5.5 0 0 0 1 0v-2a.5.5 0 0 0-.5-.5"/><path fill="#7FB51F" d="M27.744 21.564a.5.5 0 0 0-.681.192c-.237.423-1.203.687-1.563.744h-10a.5.5 0 0 0 0 1l10.069-.005c.185-.026 1.824-.281 2.367-1.251a.5.5 0 0 0-.192-.68"/></svg>
